packages/kaspersky-hexa-ui-icons/src/iconsSVGs/64x42/FlagFm.svg

<svg xmlns="http://www.w3.org/2000/svg" width="64" height="42" fill="none" viewBox="0 0 64 42"><g clip-path="url(#a)"><rect width="64" height="42" fill="#fff" rx="5"/><path fill="#95cef5" d="M0 0h64v42H0z"/><path fill="#fff" fill-rule="evenodd" d="m28.7081 14.3304 3.2916-2.2344 3.2916 2.2344-1.1079-3.8209 3.1423-2.44-3.9764-.127L31.9997 4.2l-1.3495 3.7425-3.9764.127 3.1423 2.44zm0 22.4 3.2916-2.2345 3.2916 2.2345-1.1079-3.821 3.1423-2.44-3.9764-.127-1.3496-3.7425-1.3495 3.7425-3.9764.127 3.1423 2.44zM43.1998 23.296l-3.2916 2.2345 1.108-3.821-3.1423-2.44 3.9764-.127L43.1998 15.4l1.3496 3.7425 3.9763.127-3.1422 2.44 1.1079 3.821zm-25.6915 2.2345 3.2916-2.2345 3.2916 2.2345-1.108-3.821 3.1423-2.44-3.9763-.127L20.7999 15.4l-1.3495 3.7425-3.9764.127 3.1423 2.44z" clip-rule="evenodd"/></g><defs><clipPath id="a"><rect width="64" height="42" fill="#fff" rx="5"/></clipPath></defs></svg>

<svg width="64" height="42" viewBox="0 0 64 42" fill="none" xmlns="http://www.w3.org/2000/svg">
<g clip-path="url(#clip0_37941_2241)">
<rect width="64" height="42" rx="5" fill="white"/>
<rect width="64" height="42" fill="#95CEF5"/>
<path fill-rule="evenodd" clip-rule="evenodd" d="M28.7081 14.3304L31.9997 12.096L35.2913 14.3304L34.1834 10.5095L37.3257 8.06946L33.3493 7.94245L31.9997 4.19995L30.6502 7.94245L26.6738 8.06946L29.8161 10.5095L28.7081 14.3304ZM28.7081 36.7304L31.9997 34.4959L35.2913 36.7304L34.1834 32.9094L37.3257 30.4694L33.3493 30.3424L31.9997 26.5999L30.6502 30.3424L26.6738 30.4694L29.8161 32.9094L28.7081 36.7304ZM43.1998 23.296L39.9082 25.5305L41.0162 21.7095L37.8739 19.2695L41.8503 19.1425L43.1998 15.4L44.5494 19.1425L48.5257 19.2695L45.3835 21.7095L46.4914 25.5305L43.1998 23.296ZM17.5083 25.5305L20.7999 23.296L24.0915 25.5305L22.9835 21.7095L26.1258 19.2695L22.1495 19.1425L20.7999 15.4L19.4504 19.1425L15.474 19.2695L18.6163 21.7095L17.5083 25.5305Z" fill="white"/>
</g>
<defs>
<clipPath id="clip0_37941_2241">
<rect width="64" height="42" rx="5" fill="white"/>
</clipPath>
</defs>
</svg>
